icon/CC0/storage/individual/OCAL/scalable/cardboard_box_03.svg

<?xml version="1.0" encoding="UTF-8" standalone="no"?>
<!-- Created with Inkscape (http://www.inkscape.org/) -->
<svg
    xmlns:dc="http://purl.org/dc/elements/1.1/"
    xmlns:inkscape="http://www.inkscape.org/namespaces/inkscape"
    xmlns:xlink="http://www.w3.org/1999/xlink"
    xmlns:sodipodi="http://sodipodi.sourceforge.net/DTD/sodipodi-0.dtd"
    xmlns:cc="http://web.resource.org/cc/"
    xmlns:rdf="http://www.w3.org/1999/02/22-rdf-syntax-ns#"
    xmlns="http://www.w3.org/2000/svg"
    xmlns:svg="http://www.w3.org/2000/svg"
    xmlns:ns1="http://sozi.baierouge.fr"
    id="svg2"
    sodipodi:modified="true"
    viewBox="0 0 250 170"
    sodipodi:docbase="C:\Documents and Settings\Bogdan\Desktop"
    inkscape:export-ydpi="45"
    inkscape:export-xdpi="45"
    version="1.0"
    inkscape:output_extension="org.inkscape.output.svg.inkscape"
    sodipodi:docname="cardboard_box.svg"
    inkscape:export-filename="C:\Documents and Settings\Bogdan\Desktop\cardboard_box.png"
    inkscape:version="0.45"
    sodipodi:version="0.32"
  >
  <defs
      id="defs4"
    >
    <linearGradient
        id="linearGradient25701"
      >
      <stop
          id="stop25703"
          style="stop-color:#dcc06d"
          offset="0"
      />
      <stop
          id="stop25705"
          style="stop-color:#af7e32"
          offset="1"
      />
    </linearGradient
    >
    <filter
        id="filter27663"
        inkscape:collect="always"
      >
      <feGaussianBlur
          id="feGaussianBlur27665"
          stdDeviation="0.96741655"
          inkscape:collect="always"
      />
    </filter
    >
    <filter
        id="filter27667"
        inkscape:collect="always"
      >
      <feGaussianBlur
          id="feGaussianBlur27669"
          stdDeviation="0.96741655"
          inkscape:collect="always"
      />
    </filter
    >
    <linearGradient
        id="linearGradient4142"
        y2="351.63"
        gradientUnits="userSpaceOnUse"
        x2="93.575"
        y1="408.69"
        x1="382.65"
        inkscape:collect="always"
      >
      <stop
          id="stop25687"
          style="stop-color:#dcbb6c"
          offset="0"
      />
      <stop
          id="stop25689"
          style="stop-color:#af7e32"
          offset="1"
      />
    </linearGradient
    >
    <linearGradient
        id="linearGradient4144"
        y2="304.03"
        gradientUnits="userSpaceOnUse"
        x2="391.71"
        y1="327.35"
        x1="703.98"
        inkscape:collect="always"
      >
      <stop
          id="stop5164"
          style="stop-color:#5b230a"
          offset="0"
      />
      <stop
          id="stop5166"
          style="stop-color:#8c5e22"
          offset="1"
      />
    </linearGradient
    >
    <linearGradient
        id="linearGradient4146"
        y2="69.749"
        gradientUnits="userSpaceOnUse"
        x2="431.2"
        y1="170.98"
        x1="241.54"
        inkscape:collect="always"
      >
      <stop
          id="stop25695"
          style="stop-color:#dcc06d"
          offset="0"
      />
      <stop
          id="stop25697"
          style="stop-color:#af7e32"
          offset="1"
      />
    </linearGradient
    >
    <linearGradient
        id="linearGradient4148"
        y2="107.64"
        xlink:href="#linearGradient25701"
        gradientUnits="userSpaceOnUse"
        x2="540.41"
        y1="189.24"
        x1="232.03"
        inkscape:collect="always"
    />
    <linearGradient
        id="linearGradient4150"
        y2="160.57"
        xlink:href="#linearGradient25701"
        gradientUnits="userSpaceOnUse"
        x2="517.57"
        y1="99.216"
        x1="522.68"
        inkscape:collect="always"
    />
  </defs
  >
  <sodipodi:namedview
      id="base"
      inkscape:zoom="0.8149449"
      height="170px"
      borderopacity="1.0"
      inkscape:current-layer="layer2"
      inkscape:cx="307.78638"
      inkscape:cy="186.13961"
      width="250px"
      inkscape:guide-bbox="true"
      showguides="true"
      bordercolor="#666666"
      inkscape:window-x="-4"
      guidetolerance="10"
      objecttolerance="10"
      inkscape:window-y="-4"
      inkscape:window-width="1280"
      inkscape:pageopacity="0.0"
      inkscape:pageshadow="2"
      pagecolor="#ffffff"
      gridtolerance="10000"
      inkscape:document-units="px"
      inkscape:window-height="923"
    >
    <sodipodi:guide
        id="guide4152"
        position="17.179076"
        orientation="vertical"
    />
    <sodipodi:guide
        id="guide4154"
        position="166.88245"
        orientation="horizontal"
    />
    <sodipodi:guide
        id="guide4156"
        position="234.37167"
        orientation="vertical"
    />
    <sodipodi:guide
        id="guide4158"
        position="4.9083073"
        orientation="horizontal"
    />
  </sodipodi:namedview
  >
  <g
      id="layer2"
      inkscape:label="Box"
      inkscape:groupmode="layer"
    >
    <g
        id="g4131"
        transform="matrix(.33678 0 0 .33759 -5.6912 -16.583)"
      >
      <path
          id="path2222"
          style="stroke-linejoin:round;fill-rule:evenodd;stroke:#000000;stroke-width:1px;fill:url(#linearGradient4142)"
          d="m68.407 144.23l319.78 135.17-10.72 256.31-302.47-163.18-6.593-228.3z"
      />
      <path
          id="path2224"
          sodipodi:nodetypes="ccccc"
          style="stroke-linejoin:round;stroke:#000000;stroke-width:1px;fill:url(#linearGradient4144)"
          d="m388.19 278.57l323.9-125.27-11.54 216.75-322.48 165.71 10.12-257.19z"
      />
      <path
          id="path9122"
          style="opacity:.64737;stroke-width:1px;fill-opacity:.086420;color:#000000;fill-rule:evenodd;filter:url(#filter27663);stroke:#ffffff;fill:#000000"
          d="m194.31 197.02l-11.34 234.38 74.09 40.07 13.61-242.69-76.36-31.76z"
      />
      <path
          id="path22764"
          sodipodi:nodetypes="ccccc"
          style="fill-rule:evenodd;stroke:#000000;stroke-width:1px;fill:url(#linearGradient4146)"
          d="m68.41 143.83l158.6 66.88 310.45-111.05-135.29-40.801-333.76 84.971z"
      />
      <path
          id="path22766"
          style="fill-rule:evenodd;stroke:#000000;stroke-width:1px;fill:url(#linearGradient4148)"
          d="m232.53 213.47l155.84 65.65 323.95-125.78-174.86-53.987-304.93 114.12z"
      />
      <path
          id="path6173"
          sodipodi:nodetypes="ccccc"
          style="opacity:.64737;fill-rule:evenodd;filter:url(#filter27667);stroke:#ffffff;stroke-width:1px;fill:url(#linearGradient4150)"
          d="m194.32 197.35l317.53-105.42 63.51 18.9-304.79 118.38-76.25-31.86z"
      />
      <path
          id="path10093"
          sodipodi:nodetypes="cccc"
          style="fill-rule:evenodd;fill:#000000;fill-opacity:.63580"
          d="m537.56 100.25l-311.82 109.95 8.1 3.35 303.72-113.3z"
      />
      <path
          id="path15008"
          style="opacity:.14211;fill-rule:evenodd;fill:#ffe9ff"
          d="m181.99 267.52l187.85 86.77-2.17 116.27-188.72-93.71 3.04-109.33z"
      />
      <path
          id="path16948"
          style="opacity:.36316;stroke-linejoin:round;fill-rule:evenodd;stroke:#002278;stroke-width:1.9;fill:#ffffff"
          d="m186.76 276.63l176.14 82.43-0.44 102.82-179.17-87.63 3.47-97.62z"
      />
    </g
    >
  </g
  >
  <metadata
    >
    <rdf:RDF
      >
      <cc:Work
        >
        <dc:format
          >image/svg+xml</dc:format
        >
        <dc:type
            rdf:resource="http://purl.org/dc/dcmitype/StillImage"
        />
        <cc:license
            rdf:resource="http://creativecommons.org/licenses/publicdomain/"
        />
        <dc:publisher
          >
          <cc:Agent
              rdf:about="http://openclipart.org/"
            >
            <dc:title
              >Openclipart</dc:title
            >
          </cc:Agent
          >
        </dc:publisher
        >
        <dc:title
          >Simple cardboard box</dc:title
        >
        <dc:date
          >2006-12-26T00:00:00</dc:date
        >
        <dc:description
        />
        <dc:source
          >https://openclipart.org/detail/3574/-by--3574</dc:source
        >
        <dc:creator
          >
          <cc:Agent
            >
            <dc:title
              >bogdanco</dc:title
            >
          </cc:Agent
          >
        </dc:creator
        >
        <dc:subject
          >
          <rdf:Bag
            >
            <rdf:li
              >box</rdf:li
            >
            <rdf:li
              >cardboard</rdf:li
            >
            <rdf:li
              >package</rdf:li
            >
            <rdf:li
              >storage</rdf:li
            >
          </rdf:Bag
          >
        </dc:subject
        >
      </cc:Work
      >
      <cc:License
          rdf:about="http://creativecommons.org/licenses/publicdomain/"
        >
        <cc:permits
            rdf:resource="http://creativecommons.org/ns#Reproduction"
        />
        <cc:permits
            rdf:resource="http://creativecommons.org/ns#Distribution"
        />
        <cc:permits
            rdf:resource="http://creativecommons.org/ns#DerivativeWorks"
        />
      </cc:License
      >
    </rdf:RDF
    >
  </metadata
  >
</svg
>

<?xml version="1.0" encoding="UTF-8" standalone="no"?>
<!-- Created with Inkscape (http://www.inkscape.org/) -->

<svg
   xmlns:dc="http://purl.org/dc/elements/1.1/"
   xmlns:cc="http://creativecommons.org/ns#"
   xmlns:rdf="http://www.w3.org/1999/02/22-rdf-syntax-ns#"
   xmlns:svg="http://www.w3.org/2000/svg"
   xmlns="http://www.w3.org/2000/svg"
   xmlns:xlink="http://www.w3.org/1999/xlink"
   xmlns:sodipodi="http://sodipodi.sourceforge.net/DTD/sodipodi-0.dtd"
   xmlns:inkscape="http://www.inkscape.org/namespaces/inkscape"
   id="svg2"
   sodipodi:modified="true"
   viewBox="0 0 256 189.55574"
   version="1.0"
   inkscape:output_extension="org.inkscape.output.svg.inkscape"
   sodipodi:docname="cardboard_box_03.svg"
   inkscape:version="0.92.4 (5da689c313, 2019-01-14)"
   sodipodi:version="0.32"
   width="256"
   height="189.55574">
  <title
     id="title845">Cardboard Box</title>
  <defs
     id="defs4">
    <linearGradient
       id="linearGradient25701">
      <stop
         id="stop25703"
         style="stop-color:#dcc06d"
         offset="0" />
      <stop
         id="stop25705"
         style="stop-color:#af7e32"
         offset="1" />
    </linearGradient>
    <filter
       id="filter27663"
       inkscape:collect="always">
      <feGaussianBlur
         id="feGaussianBlur27665"
         stdDeviation="0.96741655"
         inkscape:collect="always" />
    </filter>
    <filter
       id="filter27667"
       inkscape:collect="always">
      <feGaussianBlur
         id="feGaussianBlur27669"
         stdDeviation="0.96741655"
         inkscape:collect="always" />
    </filter>
    <linearGradient
       id="linearGradient4142"
       y2="351.63"
       gradientUnits="userSpaceOnUse"
       x2="93.574997"
       y1="408.69"
       x1="382.64999"
       inkscape:collect="always">
      <stop
         id="stop25687"
         style="stop-color:#dcbb6c"
         offset="0" />
      <stop
         id="stop25689"
         style="stop-color:#af7e32"
         offset="1" />
    </linearGradient>
    <linearGradient
       id="linearGradient4144"
       y2="304.03"
       gradientUnits="userSpaceOnUse"
       x2="391.70999"
       y1="327.35001"
       x1="703.97998"
       inkscape:collect="always">
      <stop
         id="stop5164"
         style="stop-color:#5b230a"
         offset="0" />
      <stop
         id="stop5166"
         style="stop-color:#8c5e22"
         offset="1" />
    </linearGradient>
    <linearGradient
       id="linearGradient4146"
       y2="69.749001"
       gradientUnits="userSpaceOnUse"
       x2="431.20001"
       y1="170.98"
       x1="241.53999"
       inkscape:collect="always">
      <stop
         id="stop25695"
         style="stop-color:#dcc06d"
         offset="0" />
      <stop
         id="stop25697"
         style="stop-color:#af7e32"
         offset="1" />
    </linearGradient>
    <linearGradient
       id="linearGradient4148"
       y2="107.64"
       xlink:href="#linearGradient25701"
       gradientUnits="userSpaceOnUse"
       x2="540.40997"
       y1="189.24001"
       x1="232.03"
       inkscape:collect="always" />
    <linearGradient
       id="linearGradient4150"
       y2="160.57001"
       xlink:href="#linearGradient25701"
       gradientUnits="userSpaceOnUse"
       x2="517.57001"
       y1="99.216003"
       x1="522.67999"
       inkscape:collect="always" />
  </defs>
  <sodipodi:namedview
     id="base"
     inkscape:zoom="0.8149449"
     height="170px"
     borderopacity="1.0"
     inkscape:current-layer="svg2"
     inkscape:cx="66.410568"
     inkscape:cy="180.59261"
     width="250px"
     inkscape:guide-bbox="true"
     showguides="false"
     bordercolor="#666666"
     inkscape:window-x="-8"
     guidetolerance="10"
     objecttolerance="10"
     inkscape:window-y="-8"
     inkscape:window-width="1920"
     inkscape:pageopacity="0.0"
     inkscape:pageshadow="2"
     pagecolor="#ffffff"
     gridtolerance="10000"
     inkscape:document-units="px"
     inkscape:window-height="1025"
     showgrid="false"
     inkscape:pagecheckerboard="true"
     inkscape:window-maximized="1"
     fit-margin-top="0"
     fit-margin-left="0"
     fit-margin-right="0"
     fit-margin-bottom="0">
    <sodipodi:guide
       id="guide4152"
       position="0.35832314,-5.5469979"
       orientation="vertical"
       inkscape:locked="false" />
    <sodipodi:guide
       id="guide4154"
       position="-16.820753,161.33545"
       orientation="horizontal"
       inkscape:locked="false" />
    <sodipodi:guide
       id="guide4156"
       position="217.55092,-5.5469979"
       orientation="vertical"
       inkscape:locked="false" />
    <sodipodi:guide
       id="guide4158"
       position="-16.820753,-0.63869061"
       orientation="horizontal"
       inkscape:locked="false" />
  </sodipodi:namedview>
  <g
     id="g4131"
     transform="matrix(0.39567503,0,0,0.39662668,-26.448772,-23.139268)">
    <path
       id="path2222"
       style="fill:url(#linearGradient4142);fill-rule:evenodd;stroke:#000000;stroke-width:1px;stroke-linejoin:round"
       d="M 68.407,144.23 388.187,279.4 377.467,535.71 74.997,372.53 68.404,144.23 Z"
       inkscape:connector-curvature="0" />
    <path
       id="path2224"
       sodipodi:nodetypes="ccccc"
       style="fill:url(#linearGradient4144);stroke:#000000;stroke-width:1px;stroke-linejoin:round"
       d="M 388.19,278.57 712.09,153.3 700.55,370.05 378.07,535.76 Z"
       inkscape:connector-curvature="0" />
    <path
       id="path9122"
       style="color:#000000;opacity:0.64736998;fill:#000000;fill-opacity:0.08641998;fill-rule:evenodd;stroke:#ffffff;stroke-width:1px;filter:url(#filter27663)"
       d="m 194.31,197.02 -11.34,234.38 74.09,40.07 13.61,-242.69 z"
       inkscape:connector-curvature="0" />
    <path
       id="path22764"
       sodipodi:nodetypes="ccccc"
       style="fill:url(#linearGradient4146);fill-rule:evenodd;stroke:#000000;stroke-width:1px"
       d="M 68.41,143.83 227.01,210.71 537.46,99.66 402.17,58.859 Z"
       inkscape:connector-curvature="0" />
    <path
       id="path22766"
       style="fill:url(#linearGradient4148);fill-rule:evenodd;stroke:#000000;stroke-width:1px"
       d="M 232.53,213.47 388.37,279.12 712.32,153.34 537.46,99.353 232.53,213.473 Z"
       inkscape:connector-curvature="0" />
    <path
       id="path6173"
       sodipodi:nodetypes="ccccc"
       style="opacity:0.64736998;fill:url(#linearGradient4150);fill-rule:evenodd;stroke:#ffffff;stroke-width:1px;filter:url(#filter27667)"
       d="M 194.32,197.35 511.85,91.93 575.36,110.83 270.57,229.21 Z"
       inkscape:connector-curvature="0" />
    <path
       id="path10093"
       sodipodi:nodetypes="cccc"
       style="fill:#000000;fill-opacity:0.63579999;fill-rule:evenodd"
       d="m 537.56,100.25 -311.82,109.95 8.1,3.35 z"
       inkscape:connector-curvature="0" />
    <path
       id="path15008"
       style="opacity:0.14211001;fill:#ffe9ff;fill-rule:evenodd"
       d="m 181.99,267.52 187.85,86.77 -2.17,116.27 -188.72,-93.71 z"
       inkscape:connector-curvature="0" />
    <path
       id="path16948"
       style="opacity:0.36316002;fill:#ffffff;fill-rule:evenodd;stroke:#002278;stroke-width:1.89999998;stroke-linejoin:round"
       d="M 186.76,276.63 362.9,359.06 362.46,461.88 183.29,374.25 Z"
       inkscape:connector-curvature="0" />
  </g>
  <metadata
     id="metadata37">
    <rdf:RDF>
      <cc:Work>
        <dc:format>image/svg+xml</dc:format>
        <dc:type
           rdf:resource="http://purl.org/dc/dcmitype/StillImage" />
        <cc:license
           rdf:resource="http://creativecommons.org/publicdomain/zero/1.0/" />
        <dc:publisher>
          <cc:Agent
             rdf:about="http://openclipart.org/">
            <dc:title>OpenClipart Library</dc:title>
          </cc:Agent>
        </dc:publisher>
        <dc:title>Cardboard Box</dc:title>
        <dc:date>2006-12-26T00:00:00</dc:date>
        <dc:description />
        <dc:source>https://openclipart.org/detail/3574</dc:source>
        <dc:creator>
          <cc:Agent>
            <dc:title>bogdanco</dc:title>
          </cc:Agent>
        </dc:creator>
        <dc:subject>
          <rdf:Bag>
            <rdf:li>box</rdf:li>
            <rdf:li>cardboard</rdf:li>
            <rdf:li>package</rdf:li>
            <rdf:li>storage</rdf:li>
          </rdf:Bag>
        </dc:subject>
      </cc:Work>
      <cc:License
         rdf:about="http://creativecommons.org/publicdomain/zero/1.0/">
        <cc:permits
           rdf:resource="http://creativecommons.org/ns#Reproduction" />
        <cc:permits
           rdf:resource="http://creativecommons.org/ns#Distribution" />
        <cc:permits
           rdf:resource="http://creativecommons.org/ns#DerivativeWorks" />
      </cc:License>
    </rdf:RDF>
  </metadata>
</svg>
